dist/img/svg/ic_ig-gray.svg

<svg width="12" height="13" viewBox="0 0 12 13" fill="none" xmlns="http://www.w3.org/2000/svg">
<path d="M6.00134 3.8965C4.29872 3.8965 2.92538 5.27014 2.92538 6.97314C2.92538 8.67615 4.29872 10.0498 6.00134 10.0498C7.70396 10.0498 9.0773 8.67615 9.0773 6.97314C9.0773 5.27014 7.70396 3.8965 6.00134 3.8965ZM6.00134 8.97337C4.90106 8.97337 4.00156 8.07635 4.00156 6.97314C4.00156 5.86994 4.89838 4.97292 6.00134 4.97292C7.10429 4.97292 8.00112 5.86994 8.00112 6.97314C8.00112 8.07635 7.10162 8.97337 6.00134 8.97337V8.97337ZM9.92058 3.77065C9.92058 4.16962 9.59933 4.48826 9.20312 4.48826C8.80424 4.48826 8.48567 4.16694 8.48567 3.77065C8.48567 3.37435 8.80692 3.05303 9.20312 3.05303C9.59933 3.05303 9.92058 3.37435 9.92058 3.77065ZM11.9578 4.49897C11.9123 3.53769 11.6928 2.68619 10.9887 1.98464C10.2873 1.28309 9.43603 1.06352 8.47496 1.01532C7.48444 0.959087 4.51556 0.959087 3.52504 1.01532C2.56665 1.06084 1.71534 1.28041 1.01127 1.98196C0.307195 2.68351 0.0903514 3.53501 0.042164 4.4963C-0.0140547 5.48704 -0.0140547 8.45658 0.042164 9.44732C0.0876743 10.4086 0.307195 11.2601 1.01127 11.9617C1.71534 12.6632 2.56397 12.8828 3.52504 12.931C4.51556 12.9872 7.48444 12.9872 8.47496 12.931C9.43603 12.8855 10.2873 12.6659 10.9887 11.9617C11.6901 11.2601 11.9096 10.4086 11.9578 9.44732C12.0141 8.45658 12.0141 5.48971 11.9578 4.49897V4.49897ZM10.6782 10.5104C10.4694 11.0352 10.0651 11.4395 9.53776 11.651C8.74802 11.9643 6.87407 11.892 6.00134 11.892C5.12861 11.892 3.25198 11.9617 2.46492 11.651C1.94021 11.4422 1.53597 11.0379 1.32448 10.5104C1.01127 9.72044 1.08355 7.84607 1.08355 6.97314C1.08355 6.10022 1.01394 4.22317 1.32448 3.43594C1.5333 2.91111 1.93753 2.50678 2.46492 2.29525C3.25466 1.98196 5.12861 2.05426 6.00134 2.05426C6.87407 2.05426 8.7507 1.98464 9.53776 2.29525C10.0625 2.50411 10.4667 2.90843 10.6782 3.43594C10.9914 4.22585 10.9191 6.10022 10.9191 6.97314C10.9191 7.84607 10.9914 9.72312 10.6782 10.5104Z" fill="#7C7C7C"/>
</svg>

<svg width="12" height="13" viewBox="0 0 12 13" fill="none" xmlns="http://www.w3.org/2000/svg"><path d="M6.001 3.897a3.071 3.071 0 00-3.076 3.076 3.071 3.071 0 003.076 3.077 3.071 3.071 0 003.076-3.077 3.071 3.071 0 00-3.076-3.076zm0 5.076c-1.1 0-2-.897-2-2s.897-2 2-2 2 .897 2 2-.9 2-2 2zm3.92-5.202a.716.716 0 01-.718.717.718.718 0 11.717-.718zm2.037.728c-.046-.961-.265-1.813-.97-2.514-.7-.702-1.552-.921-2.513-.97-.99-.056-3.96-.056-4.95 0-.958.046-1.81.265-2.514.967-.704.702-.92 1.553-.969 2.514-.056.991-.056 3.96 0 4.951.046.962.265 1.813.97 2.515.703.701 1.552.92 2.513.969.99.056 3.96.056 4.95 0 .961-.045 1.812-.265 2.514-.97.701-.7.92-1.552.969-2.514.056-.99.056-3.957 0-4.948zm-1.28 6.011c-.209.525-.613.93-1.14 1.141-.79.313-2.664.241-3.537.241-.872 0-2.749.07-3.536-.241a2.025 2.025 0 01-1.14-1.14c-.314-.79-.241-2.665-.241-3.538 0-.873-.07-2.75.24-3.537.21-.525.614-.93 1.14-1.14.79-.314 2.665-.242 3.537-.242.873 0 2.75-.07 3.537.241.524.21.929.613 1.14 1.14.313.79.241 2.665.241 3.538 0 .873.072 2.75-.24 3.537z" fill="#7C7C7C"/></svg>
